16x16/apps/io.gitlab.windstille.Windstille-0_2.svg

<svg xmlns="http://www.w3.org/2000/svg" width="16" height="16" version="1.1">
 <path style="fill:#17598c;fill-rule:evenodd" d="M 9.0912772,0.36583998 C 8.4344877,0.36801196 7.7501546,0.43940437 7.0456311,0.55335405 5.8979476,0.73898039 4.7051209,0.97456664 3.6705492,1.7010964 2.9458415,2.210024 2.2990534,2.7640237 1.7988844,3.2402746 1.3546138,3.6665205 0.47792335,4.2030777 0.48884978,5.007565 c -0.003624,0.3797111 -0.0303914,1.0431716 0.54108412,1.6262625 0,0 0.3200874,1.8069043 0.1635266,1.9654429 C 1.0368997,8.757809 0.69360575,9.1184543 0.40005433,9.257175 0.10650295,9.3958962 0.26777837,9.4300151 0.16992791,9.9849003 0.07207737,10.539786 0.36933548,11.740174 1.2304196,12.275243 2.091504,12.810311 3.4275221,12.987238 4.1907554,12.848518 4.467279,12.798258 4.6487646,13.238674 4.9360096,13.120704 5.119076,13.025284 5.2994413,12.932512 5.492282,12.830838 5.893452,12.660016 6.3169995,12.551294 6.7468202,12.286204 7.6237609,11.745353 9.384389,11.837759 10.880243,11.433796 12.393237,11.025203 12.942469,10.268541 13.20395,9.9677242 13.558153,9.5602362 13.572758,8.895905 14.02673,8.8102238 14.0735,8.7223398 14.12045,8.6340433 14.15156,8.5617675 14.484251,7.7888923 15.763657,5.5175703 14.06106,2.9215006 12.78411,0.97444832 11.061645,0.35931936 9.0912772,0.36583998 Z"/>
 <path style="fill:#b0c4de;fill-rule:evenodd" d="M 8.6192653,0.00253145 C 8.3937081,0.008299 8.1661433,0.02449566 7.9381633,0.04472212 c -7.6e-4,6.872e-5 -0.00156,-6.88e-5 -0.00236,0 -0.067562,0.0060211 -0.1351268,0.01231469 -0.2028482,0.01953263 -0.00156,1.6627e-4 -0.00312,6.1199e-4 -0.00468,7.7999e-4 -0.2270128,0.02419659 -0.4544576,0.0521593 -0.6826624,0.08906918 -0.1442119,0.0265742 -0.2731924,0.05649 -0.4056964,0.0851627 -0.030848,0.007638 -0.061969,0.0167906 -0.092842,0.0250018 C 6.4586355,0.28749455 6.3699923,0.3116765 6.281031,0.33927397 5.3545156,0.6325432 4.4316121,1.1642621 3.6089129,1.748756 5.3375221,2.3000684 8.8976601,0.97783005 10.945776,1.971429 c 1.844635,0.8948849 4.227929,3.1829467 2.406873,7.6527786 0.217844,-0.2923322 0.393224,-0.5121958 0.818414,-0.5344152 0.08101,-0.00423 -0.101276,0.4584694 0,0.4693734 0.02412,-0.042799 0.333996,-0.8454426 0.350306,-0.8833279 0.03764,-0.087434 0.08854,-0.2046186 0.142774,-0.3351806 0.01493,-0.035984 0.03194,-0.082893 0.04759,-0.1218842 0.04418,-0.1101366 0.0893,-0.2300751 0.135752,-0.3625272 0.02121,-0.060521 0.04151,-0.12895 0.06241,-0.1937647 0.03995,-0.1239969 0.07842,-0.2552949 0.114688,-0.3937797 0.04073,-0.1556806 0.08157,-0.3133181 0.113127,-0.4851922 v -7.999e-4 c 0.0011,-0.00611 0.002,-0.01262 0.0031,-0.018748 0.02075,-0.1149862 0.03902,-0.2333871 0.05383,-0.3547141 0.003,-0.02432 0.0043,-0.049663 0.007,-0.074224 0.01064,-0.096916 0.019,-0.1956835 0.02497,-0.2961162 0.0031,-0.052218 0.0045,-0.1055043 0.0062,-0.1586058 0.0025,-0.079164 0.004,-0.158859 0.0031,-0.2398615 -6.4e-4,-0.056831 -0.003,-0.1149974 -0.0055,-0.1726693 C 15.22691,5.3845904 15.22081,5.3009863 15.21325,5.216189 15.20825,5.160086 15.20299,5.1034 15.19609,5.0466453 15.18526,4.9576633 15.17055,4.8683133 15.15474,4.7778748 15.14524,4.7237468 15.13722,4.6699634 15.12587,4.6153627 15.10468,4.513488 15.07758,4.4100753 15.04941,4.3067458 15.03696,4.2610608 15.02741,4.2159518 15.01352,4.1700166 14.968485,4.0206378 14.91672,3.8699687 14.855293,3.71842 14.791533,3.5611178 14.718253,3.4030096 14.63528,3.2441658 c -4.4e-4,-8e-4 -0.0011,-0.00152 -0.0016,-0.00236 C 14.546762,3.0757921 14.450931,2.9118183 14.345041,2.7503622 14.238747,2.5882884 14.127967,2.4347325 14.013462,2.2886089 v -7.8e-4 C 13.90855,2.1543547 13.798695,2.0291584 13.68735,1.9089246 l -8e-4,-7.8e-4 c -0.02776,-0.029933 -0.05611,-0.05838 -0.08426,-0.087507 l -8e-4,-7.8e-4 c -0.08653,-0.089608 -0.174436,-0.1749371 -0.264481,-0.2570508 -0.02903,-0.026467 -0.05728,-0.054665 -0.0866,-0.080475 -0.0013,-0.00111 -0.0026,-0.00202 -0.0039,-0.00312 -0.118572,-0.103642 -0.240072,-0.2022809 -0.364291,-0.2937758 -0.123505,-0.09097 -0.250589,-0.174542 -0.37917,-0.25392532 -0.03454,-0.0213154 -0.06965,-0.0412342 -0.104545,-0.0617233 l -8e-4,-7.8e-4 C 12.296535,0.80956518 12.194291,0.75375588 12.09031,0.70102606 h -8e-4 C 12.05709,0.68454676 12.02479,0.66763346 11.99203,0.65180226 11.856318,0.58622413 11.719249,0.52382123 11.579289,0.46897267 11.440506,0.41458567 11.29903,0.36715929 11.156428,0.322868 11.116398,0.3104383 11.075818,0.2993662 11.035499,0.287709 c -0.02472,-0.00715 -0.05,-0.0127611 -0.0749,-0.0195326 -0.05542,-0.0153203 -0.111042,-0.0306293 -0.16696,-0.0445346 -0.0021,-5.16e-4 -0.0042,-0.001052 -0.0062,-0.001564 C 10.575959,0.1696541 10.362383,0.12383642 10.144526,0.09081775 9.9228671,0.05722321 9.6967319,0.03627939 9.4696655,0.02128124 c -7.6e-4,-5.12e-5 -0.00156,5.1e-5 -0.00236,0 -0.05339,-0.003512 -0.1070707,-0.0068383 -0.1607182,-0.0093755 -0.00284,-1.3432e-4 -0.00575,1.3235e-4 -0.00858,0 C 9.0733853,0.00143342 8.8476445,-0.00331014 8.6192465,0.00253021 Z"/>
 <path style="fill:none" d="M 7.016e-5,8.9332675 1.4286872,9.0125372 6.2625004,8.5963736 8.630482,9.0521712 10.000389,5.7426783 7.9455288,4.9698027 0.84158426,5.8219472"/>
 <path style="fill:#87cefa;fill-rule:evenodd" d="m 1.0299339,6.6338275 c 0,0 1.8628397,-0.5870853 3.4508209,-0.6096551 0.7177261,-0.0102 1.1811037,0.046961 1.7791633,0.1133984 C 7.3278447,6.2892751 7.1803336,6.5222212 6.4200819,7.0383591 5.3649043,7.7421049 5.4895184,8.0024116 3.8647478,8.2044731 L 1.0100661,8.5476869 Z"/>
 <path style="fill:#755959;fill-rule:evenodd" d="M 3.8463052,13.557373 C 3.1247371,13.695159 1.7294638,13.458956 0.91538677,12.927498 0.10130991,12.396041 -0.04670407,10.5261 0.04580472,9.9749583 0.13831343,9.4238176 0.13831343,8.9502713 0.41583963,8.8124865 2.1152144,8.1166198 3.7357773,8.097544 5.571708,7.8888682 c 0,0 1.1172822,0.8781879 1.370584,1.6428888 0.1767884,0.533711 -0.3309331,1.817585 -0.9985116,2.807083 -0.3781723,0.650349 -1.3568161,1.091162 -2.0974752,1.218533 z"/>
 <circle style="opacity:0.3" cx="5.5" cy="9.5" r=".5"/>
 <path style="fill:#224043;fill-rule:evenodd" d="m 14.171065,8.9900564 c -0.578587,0.030236 -0.694458,0.4238299 -1.084458,0.8725 -0.261481,0.3008166 -0.69337,1.0625646 -2.206364,1.4711576 -1.495854,0.403964 -3.2564821,0.311304 -4.1334228,0.852154 -0.4298203,0.26509 -0.8533686,0.473967 -1.2545382,0.644789 -0.5865777,0.309269 -1.5212503,0.626621 -2.0466786,0.726952 -0.1558742,0.02977 -0.3677579,0.03878 -0.6030834,0.03443 -0.1172451,0.0436 -0.2163458,0.08626 -0.2699441,0.131462 -0.3346107,0.282218 -0.9678819,2.089002 -0.1661794,2.266151 0.8017015,0.17715 4.5410003,-1.980715 7.7155055,-1.874113 3.174505,0.106601 5.252135,-1.490155 5.630598,-2.847594 0.378463,-1.357439 0.471398,-1.8471422 -0.820755,-2.1753799 -0.323038,-0.08206 -0.567818,-0.1125873 -0.76068,-0.1025098 z"/>
</svg>

<svg xmlns="http://www.w3.org/2000/svg" width="16" height="16"><path style="fill:#17598c;fill-rule:evenodd" d="M9.091.366c-.657.002-1.34.073-2.045.187C5.898.74 4.706.975 3.67 1.701a16.638 16.638 0 0 0-1.872 1.54c-.444.426-1.321.962-1.31 1.767-.004.38-.03 1.043.54 1.626 0 0 .321 1.807.164 1.965-.156.159-.5.52-.793.658-.293.139-.132.173-.23.728-.098.555.2 1.755 1.06 2.29.862.535 2.198.712 2.96.574.277-.05.459.39.746.272.183-.096.363-.188.556-.29.401-.171.825-.28 1.255-.545.877-.54 2.637-.448 4.133-.852 1.513-.409 2.062-1.165 2.324-1.466.354-.408.369-1.072.823-1.158.046-.088.093-.176.125-.248.332-.773 1.612-3.044-.09-5.64-1.278-1.948-3-2.563-4.97-2.556z"/><path style="fill:#b0c4de;fill-rule:evenodd" d="M8.62.003c-.226.005-.454.021-.682.042h-.002a11.77 11.77 0 0 0-.203.02h-.005a12.69 12.69 0 0 0-.682.09C6.9.18 6.772.21 6.64.238l-.093.025a6.265 6.265 0 0 0-.266.075c-.926.294-1.85.825-2.672 1.41 1.729.551 5.289-.771 7.337.222 1.844.895 4.228 3.183 2.407 7.653.217-.292.393-.512.818-.534.081-.004-.101.458 0 .47.024-.044.334-.846.35-.884.038-.088.089-.205.143-.335l.048-.122c.044-.11.089-.23.135-.363.022-.06.042-.129.063-.194.04-.124.078-.255.115-.393a6.56 6.56 0 0 0 .113-.485v-.001l.003-.019c.02-.115.039-.233.054-.355l.007-.074c.01-.097.019-.196.025-.296.003-.052.004-.106.006-.159a5.603 5.603 0 0 0-.003-.412 5.38 5.38 0 0 0-.075-.69c-.01-.054-.018-.108-.03-.163a5.245 5.245 0 0 0-.076-.308c-.012-.046-.022-.091-.035-.137a5.176 5.176 0 0 0-.379-.926l-.001-.002a5.804 5.804 0 0 0-.289-.492 6.746 6.746 0 0 0-.332-.461v-.001a6.167 6.167 0 0 0-.326-.38l-.085-.087V1.82a5.796 5.796 0 0 0-.265-.257c-.029-.027-.057-.055-.087-.08 0-.002-.002-.003-.003-.004a5.618 5.618 0 0 0-.365-.294 5.577 5.577 0 0 0-.379-.253c-.034-.022-.07-.042-.104-.062l-.001-.001a5.652 5.652 0 0 0-.308-.168l-.098-.05a5.893 5.893 0 0 0-.413-.182 6.186 6.186 0 0 0-.423-.146c-.04-.013-.08-.024-.12-.035l-.075-.02a6.655 6.655 0 0 0-.174-.046 7.078 7.078 0 0 0-.642-.131A8.056 8.056 0 0 0 9.47.02h-.003a8.743 8.743 0 0 0-.16-.01h-.009a9.39 9.39 0 0 0-.679-.008z"/><path style="fill:none" d="m0 8.933 1.429.08 4.834-.417 2.367.456L10 5.742 7.946 4.97l-7.104.852"/><path style="fill:#87cefa;fill-rule:evenodd" d="M1.03 6.634s1.863-.587 3.45-.61c.718-.01 1.182.047 1.78.114 1.068.151.92.384.16.9-1.055.704-.93.964-2.555 1.166l-2.855.344z"/><path style="fill:#755959;fill-rule:evenodd" d="M3.846 13.557c-.721.138-2.117-.098-2.93-.63-.815-.531-.963-2.4-.87-2.952.092-.551.092-1.025.37-1.163 1.7-.695 3.32-.714 5.156-.923 0 0 1.117.878 1.37 1.643.177.533-.33 1.817-.998 2.807-.378.65-1.357 1.091-2.098 1.218z"/><circle style="opacity:.3" cx="5.5" cy="9.5" r=".5"/><path style="fill:#224043;fill-rule:evenodd" d="M14.171 8.99c-.579.03-.694.424-1.084.873-.262.3-.694 1.062-2.207 1.47-1.496.405-3.256.312-4.133.853-.43.265-.854.474-1.255.645-.586.309-1.521.626-2.046.727a3.13 3.13 0 0 1-.603.034 1.01 1.01 0 0 0-.27.132c-.335.282-.968 2.089-.167 2.266.802.177 4.541-1.981 7.716-1.874 3.174.106 5.252-1.49 5.63-2.848.379-1.357.472-1.847-.82-2.175-.323-.082-.568-.113-.76-.103z"/></svg>
